X:29
T:Cornishtown Road
R:reel
C:Paul S. Cranford
O:Cape Breton Island
S:http://www.cranfordpub.com
D:currently unrecorded
B:currently unpublished in book form
Z:psc, (re-formatted,updated 9/17/04)
N:
H:                                                        copyrights Cranford Publications, SOCAN
L:1/8
Q:333
M:C|
K:C
cd|edeg edce|dcec dcAc|GcEc GAca|gece d2 cd|
egag edce|dgec dcAF|GEcG Acfa|gede c2:|
|:ef|gcac gcec|fdec decA|GcGF EGca|[1gece d2 ef|
gcac gcec|fdec decA|GcGF EGce|dced c2:|
[2gece d2 cd|egag edca|gcec
 dcAF|GEcG Acfa|gede c2|]
